X:11
%%pagewidth 950pt
%%score 1 2
T:The Three Ravens
M:C
L:1/4
K:Bb
V:1 clef=treble
V:2 clef=bass octave=-1
V:1
G|GABd&D4|[Gc][DGB][EGc]2|G>A[DGB][Gc]&Dx3|d>edd&[^FA]3x|
w:There were three ra-vens sat on~a tree, Down a down, hey down, hey down, They
V:2
z|B4&G3F|cxC2&EGx2|B,2GE|D3z|
V:1
GABG&D2D2|ABcB/c/&[EG]2[EG]2|([Dd]4&G2^F2|[DGd]3)d|dfed&=F4|
w:were as black as they might be, With a down ... The one of them said
V:2
B2G2|c2A2|B2c2&D4|[GB]3z|[B,B]dcB|
V:1
cBA>A&F4|BdcB&D4|A^FDB/c/&D3D|[DGd]2c/B/A/G/&x2E2|[D^F]/G/[CA]!fermata![B,G]||
w:to his mate, Where shall we `now' our breakfast* take? With a down, derry,* derry,* derry* down, down.
V:2
A2c2&F4|G,BAG|[D^F]3G,/A,/|B,2C2|D2!fermata!G,||

